X: 4
T:Tengo una novia pastora
M:3/4
L:1/8
Q:200
C:X.M. Raposo
R:Foliada
B:Os Segredos da Gaita. FOXO
K:C
c{C}c {G}c{C}c |: B2A2 G2- | G2 A{F}A {c}A{F}A | G2 F2 E2- |E2 G{F}G {B}
G{F}G |
F2E2D2 | E2F2G2 | A4 G2- | G2 c{C}c {G}c{C}c | B2A2 G2- | G2 A{F}A {c}A{
F}A |
G2F2E2- | E2 G{F}G {B}G{F}G| F2E2D2 | C2D2F2 | E3DC2- |1 C2 c{C}c {G}c{C
}c :|2
C2{A} CD EF |: G6- | G2 ED CE | D6- | D2 B,C DE | F6- | 
F2 DC B,D | C6- |1 C2 {A} CD EF :|2 C2 _E2 {C}E2 | {B}_E2 {DE} D2C2 | _E
2{DE}D2C2-|
C6| F2{C}F2{C}F2 | {B}F3 _E FG- | G3 F _ED- | D6- | D6 |
_E2{C}E2{C}E2| {B} _E2 D2C2 | (3_EFE D4- | D4 G2| (3_A_BA G4- | G6|
c2{C}c2{C}c2 | _B2_A2G2 | _A2G2F2- | F6- | F6 | {B}F2{C}F2{C}F2 |{BFG}F2
_E2D2|
_E2 G4- | G2 {FG}F2 {EF}_E2 | D2 F4- | F2 {EF}_E2 {DE}D2 | C6- | C2 ||

